common/assets/images/wallets/cipher.svg

<svg height="330" viewBox="0 0 330 330" width="330" xmlns="http://www.w3.org/2000/svg"><g fill="none" fill-rule="evenodd"><circle cx="164.912047" cy="164.912047" fill="#000" r="164.912047"/><g fill="#fff" transform="matrix(.70710678 .70710678 -.70710678 .70710678 164.912026 24.979451)"><path d="m20.5676823 0h54.7642576c11.3592172 0 20.5676822 9.20846501 20.5676822 20.5676823v54.7642576c0 11.3592172-9.208465 20.5676822-20.5676822 20.5676822h-54.7642576c-11.35921729 0-20.5676823-9.208465-20.5676823-20.5676822v-54.7642576c0-11.35921729 9.20846501-20.5676823 20.5676823-20.5676823zm27.3821288 65.9309902c9.930731 0 17.9811791-8.0504481 17.9811791-17.9811791 0-9.9307311-8.0504481-17.9811792-17.9811791-17.9811792-9.9307311 0-17.9811792 8.0504481-17.9811792 17.9811792 0 9.930731 8.0504481 17.9811791 17.9811792 17.9811791z"/><path d="m122.460048 7.71386383c-7.099511 0-12.854802 5.75529067-12.854802 12.85480137v54.7642577c0 7.0995107 5.755291 12.8548014 12.854802 12.8548014h54.764257c7.099511 0 12.854802-5.7552907 12.854802-12.8548014v-54.7642577c0-7.0995107-5.755291-12.85480137-12.854802-12.85480137zm0-7.71288085h54.764257c11.359218 0 20.567683 9.20846501 20.567683 20.56768222v54.7642577c0 11.3592172-9.208465 20.5676822-20.567683 20.5676822h-54.764257c-11.359217 0-20.567682-9.208465-20.567682-20.5676822v-54.7642577c0-11.35921721 9.208465-20.56768222 20.567682-20.56768222z" fill-rule="nonzero"/><circle cx="149.842177" cy="47.950794" r="17.981179"/><path d="m20.5676823 101.893349h54.7642576c11.3592172 0 20.5676822 9.208465 20.5676822 20.567682v54.764257c0 11.359218-9.208465 20.567683-20.5676822 20.567683h-54.7642576c-11.35921729 0-20.5676823-9.208465-20.5676823-20.567683v-54.764257c0-11.359217 9.20846501-20.567682 20.5676823-20.567682zm27.3821288 65.93099c9.930731 0 17.9811791-8.050448 17.9811791-17.981179s-8.0504481-17.98118-17.9811791-17.98118c-9.9307311 0-17.9811792 8.050449-17.9811792 17.98118s8.0504481 17.981179 17.9811792 17.981179z"/><path d="m122.461031 101.893349h54.764257c11.359218 0 20.567683 9.208465 20.567683 20.567682v54.764257c0 11.359218-9.208465 20.567683-20.567683 20.567683h-54.764257c-11.359217 0-20.567682-9.208465-20.567682-20.567683v-54.764257c0-11.359217 9.208465-20.567682 20.567682-20.567682zm27.382129 65.93099c9.930731 0 17.981179-8.050448 17.981179-17.981179s-8.050448-17.98118-17.981179-17.98118-17.98118 8.050449-17.98118 17.98118 8.050449 17.981179 17.98118 17.981179z"/></g></g></svg>

<?xml version="1.0" encoding="UTF-8"?>
<svg width="330px" height="330px" viewBox="0 0 330 330" version="1.1" xmlns="http://www.w3.org/2000/svg" xmlns:xlink="http://www.w3.org/1999/xlink">
    <!-- Generator: Sketch 46 (44423) - http://www.bohemiancoding.com/sketch -->
    <title>Group 3</title>
    <desc>Created with Sketch.</desc>
    <defs></defs>
    <g id="Page-1" stroke="none" stroke-width="1" fill="none" fill-rule="evenodd">
        <g id="Group-3">
            <circle id="Oval-2" fill="#000000" cx="164.912047" cy="164.912047" r="164.912047"></circle>
            <g id="Group-2" transform="translate(164.934365, 164.978810) rotate(-315.000000) translate(-164.934365, -164.978810) translate(65.924073, 66.000110)" fill="#FFFFFF">
                <g id="Group">
                    <path d="M20.5676823,0 L75.3319399,0 C86.6911571,-2.08665436e-15 95.8996221,9.20846501 95.8996221,20.5676823 L95.8996221,75.3319399 C95.8996221,86.6911571 86.6911571,95.8996221 75.3319399,95.8996221 L20.5676823,95.8996221 C9.20846501,95.8996221 1.3911029e-15,86.6911571 0,75.3319399 L0,20.5676823 C-1.3911029e-15,9.20846501 9.20846501,2.08665436e-15 20.5676823,0 Z M47.9498111,65.9309902 C57.8805421,65.9309902 65.9309902,57.8805421 65.9309902,47.9498111 C65.9309902,38.01908 57.8805421,29.9686319 47.9498111,29.9686319 C38.01908,29.9686319 29.9686319,38.01908 29.9686319,47.9498111 C29.9686319,57.8805421 38.01908,65.9309902 47.9498111,65.9309902 Z" id="Combined-Shape"></path>
                    <path d="M122.460048,7.71386383 C115.360537,7.71386383 109.605246,13.4691545 109.605246,20.5686652 L109.605246,75.3329229 C109.605246,82.4324336 115.360537,88.1877243 122.460048,88.1877243 L177.224305,88.1877243 C184.323816,88.1877243 190.079107,82.4324336 190.079107,75.3329229 L190.079107,20.5686652 C190.079107,13.4691545 184.323816,7.71386383 177.224305,7.71386383 L122.460048,7.71386383 Z M122.460048,0.000982982783 L177.224305,0.000982982783 C188.583523,0.000982982783 197.791988,9.20944799 197.791988,20.5686652 L197.791988,75.3329229 C197.791988,86.6921401 188.583523,95.9006051 177.224305,95.9006051 L122.460048,95.9006051 C111.100831,95.9006051 101.892366,86.6921401 101.892366,75.3329229 L101.892366,20.5686652 C101.892366,9.20944799 111.100831,0.000982982783 122.460048,0.000982982783 Z" id="Combined-Shape" fill-rule="nonzero"></path>
                    <circle id="Oval" cx="149.842177" cy="47.9507941" r="17.9811792"></circle>
                    <path d="M20.5676823,101.893349 L75.3319399,101.893349 C86.6911571,101.893349 95.8996221,111.101814 95.8996221,122.461031 L95.8996221,177.225288 C95.8996221,188.584506 86.6911571,197.792971 75.3319399,197.792971 L20.5676823,197.792971 C9.20846501,197.792971 1.3911029e-15,188.584506 0,177.225288 L0,122.461031 C-1.3911029e-15,111.101814 9.20846501,101.893349 20.5676823,101.893349 Z M47.9498111,167.824339 C57.8805421,167.824339 65.9309902,159.773891 65.9309902,149.84316 C65.9309902,139.912429 57.8805421,131.86198 47.9498111,131.86198 C38.01908,131.86198 29.9686319,139.912429 29.9686319,149.84316 C29.9686319,159.773891 38.01908,167.824339 47.9498111,167.824339 Z" id="Combined-Shape"></path>
                    <path d="M122.461031,101.893349 L177.225288,101.893349 C188.584506,101.893349 197.792971,111.101814 197.792971,122.461031 L197.792971,177.225288 C197.792971,188.584506 188.584506,197.792971 177.225288,197.792971 L122.461031,197.792971 C111.101814,197.792971 101.893349,188.584506 101.893349,177.225288 L101.893349,122.461031 C101.893349,111.101814 111.101814,101.893349 122.461031,101.893349 Z M149.84316,167.824339 C159.773891,167.824339 167.824339,159.773891 167.824339,149.84316 C167.824339,139.912429 159.773891,131.86198 149.84316,131.86198 C139.912429,131.86198 131.86198,139.912429 131.86198,149.84316 C131.86198,159.773891 139.912429,167.824339 149.84316,167.824339 Z" id="Combined-Shape"></path>
                </g>
            </g>
        </g>
    </g>
</svg>
